vendor/shopware/storefront/Resources/app/storefront/dist/assets/icon/default/dashboard.svg

<svg xmlns="http://www.w3.org/2000/svg" width="24" height="24" viewBox="0 0 24 24">
  <path fill="#758CA3" fill-rule="evenodd" d="M3,2 C2.44771525,2 2,2.44771525 2,3 L2,6 C2,6.55228475 2.44771525,7 3,7 L6,7 C6.55228475,7 7,6.55228475 7,6 L7,3 C7,2.44771525 6.55228475,2 6,2 L3,2 Z M3,1.03619912e-15 L6,1.18423338e-15 C7.65685425,5.83815765e-16 9,1.34314575 9,3 L9,6 C9,7.65685425 7.65685425,9 6,9 L3,9 C1.34314575,9 4.9460801e-16,7.65685425 -4.4408921e-16,6 L-1.97215226e-31,3 C2.41183085e-16,1.34314575 1.34314575,1.63663028e-15 3,1.03619912e-15 Z M14,16 L21,16 C22.6568542,16 24,17.3431458 24,19 L24,21 C24,22.6568542 22.6568542,24 21,24 L14,24 C12.3431458,24 11,22.6568542 11,21 L11,19 C11,17.3431458 12.3431458,16 14,16 Z M14,18 C13.4477153,18 13,18.4477153 13,19 L13,21 C13,21.5522847 13.4477153,22 14,22 L21,22 C21.5522847,22 22,21.5522847 22,21 L22,19 C22,18.4477153 21.5522847,18 21,18 L14,18 Z M3,11 L6,11 C7.65685425,11 9,12.3431458 9,14 L9,21 C9,22.6568542 7.65685425,24 6,24 L3,24 C1.34314575,24 4.9460801e-16,22.6568542 -4.4408921e-16,21 L-4.4408921e-16,14 C-6.46995335e-16,12.3431458 1.34314575,11 3,11 Z M3,13 C2.44771525,13 2,13.4477153 2,14 L2,21 C2,21.5522847 2.44771525,22 3,22 L6,22 C6.55228475,22 7,21.5522847 7,21 L7,14 C7,13.4477153 6.55228475,13 6,13 L3,13 Z M21,7.14323891e-15 C22.6568542,9.75294064e-15 24,1.34314575 24,3 L24,11 C24,12.6568542 22.6568542,14 21,14 L14,14 C12.3431458,14 11,12.6568542 11,11 L11,3 C11,1.34314575 12.3431458,1.34056178e-15 14,1.03619912e-15 L21,7.14323891e-15 Z M13,3 L13,11 C13,11.5522847 13.4477153,12 14,12 L21,12 C21.5522847,12 22,11.5522847 22,11 L22,3 C22,2.44771525 21.5522847,2 21,2 L14,2 C13.4477153,2 13,2.44771525 13,3 Z"/>
</svg>

<svg xmlns="http://www.w3.org/2000/svg" width="24" height="24" viewBox="0 0 24 24"><path fill="#758CA3" fill-rule="evenodd" d="M3 2c-.5523 0-1 .4477-1 1v3c0 .5523.4477 1 1 1h3c.5523 0 1-.4477 1-1V3c0-.5523-.4477-1-1-1H3zm0-2h3c1.6569 0 3 1.3431 3 3v3c0 1.6569-1.3431 3-3 3H3C1.3431 9 0 7.6569 0 6V3c0-1.6569 1.3431-3 3-3zm11 16h7c1.6569 0 3 1.3431 3 3v2c0 1.6569-1.3431 3-3 3h-7c-1.6569 0-3-1.3431-3-3v-2c0-1.6569 1.3431-3 3-3zm0 2c-.5523 0-1 .4477-1 1v2c0 .5523.4477 1 1 1h7c.5523 0 1-.4477 1-1v-2c0-.5523-.4477-1-1-1h-7zM3 11h3c1.6569 0 3 1.3431 3 3v7c0 1.6569-1.3431 3-3 3H3c-1.6569 0-3-1.3431-3-3v-7c0-1.6569 1.3431-3 3-3zm0 2c-.5523 0-1 .4477-1 1v7c0 .5523.4477 1 1 1h3c.5523 0 1-.4477 1-1v-7c0-.5523-.4477-1-1-1H3zM21 0c1.6569 0 3 1.3431 3 3v8c0 1.6569-1.3431 3-3 3h-7c-1.6569 0-3-1.3431-3-3V3c0-1.6569 1.3431-3 3-3h7zm-8 3v8c0 .5523.4477 1 1 1h7c.5523 0 1-.4477 1-1V3c0-.5523-.4477-1-1-1h-7c-.5523 0-1 .4477-1 1z"/></svg>
